X:1
T:Title
%%score { ( 1 3 ) | ( 2 4 5 ) }
L:1/8
M:4/4
K:F
V:1 treble nm="Grand Piano"
V:3 treble 
V:2 bass 
V:4 bass 
V:5 bass 
V:1
 z4 z2[Q:1/4=100] C2 | AA_AA [C=A]_A[A,CF]C | [DB]BAA [DB]AGC | AAcc [DB]B z G | %4
 F3- [FA] E-[E-G] [E-A]>[EG] |[M:3/4] F6 |[M:3/8] CF>G |[M:4/4] A4- Ac B>F | A6 A2 | %9
 [=B,DG]4 EF G>A | E4- E-[CE]FG | A4- Ac [_Ec]>B | [DF]6 B2 | A3 C [A,F][DB] E->[EA] |[M:3/4] F6 |] %15
V:2
 z4 z2 A,2 | CC=B,B, z _B, z A, | z DCC z CB,B, | z2 A2 z4 | z2 z C z B, C>B, |[M:3/4] [F,A,C]6 | %6
[M:3/8] A,A,>B, |[M:4/4][K:treble] [CF]4- [CF-][_EF-] [DF]>^C | [F,CF]6 C2 | z2 z =B, B,B, B,>B, | %10
 z4 z B,A,B, | F4- F-[_EF][K:bass] z z/ D/ | B,,6 ^C2 | C3 A, F,B,, z z/ C/ |[M:3/4] [F,A,C]6 |] %15
V:3
 x8 | z4 E2 z2 | E4 E4 | z4 F2 F2 | [CA]4 .[B,G]2 z2 |[M:3/4] x6 |[M:3/8] x3 |[M:4/4] x8 | x8 | %9
 z2 z D- D4 | [B,G]6 z2 | z4 z2 F2 | x8 | z4 z2 [B,G]2 |[M:3/4] x6 |] %15
V:4
 x8 | [F,F]4 D,2 F,2 | C,4 C,4 | CC_EE z DD^C | C,4 C,4 |[M:3/4] x6 |[M:3/8] x3 | %7
[M:4/4][K:treble] F,8 | x8 | G,8 | C,6 z2 | [F,C-]4 C2[K:bass] B,,2 | x8 | [F,F]4 z2 C,2 | %14
[M:3/4] x6 |] %15
V:5
 x8 | x8 | x8 | [F,-F]2 F,2 B,,4 | x8 |[M:3/4] x6 |[M:3/8] x3 |[M:4/4][K:treble] x8 | x8 | x8 | %10
 x8 | x6[K:bass] x2 | x8 | x8 |[M:3/4] x6 |] %15

